src/ios-shuffle-strong.svg

<?xml version="1.0" encoding="utf-8"?>
<!-- Generated by IcoMoon.io -->
<!DOCTYPE svg PUBLIC "-//W3C//DTD SVG 1.1//EN" "http://www.w3.org/Graphics/SVG/1.1/DTD/svg11.dtd">
<svg version="1.1" xmlns="http://www.w3.org/2000/svg" xmlns:xlink="http://www.w3.org/1999/xlink" width="512" height="512" viewBox="0 0 512 512">
<path fill="#000000" d="M365.419 152h13.81l-50.738 41.584 20.308 24.572 99.201-82.156-99.136-84-20.368 24.978 51.183 43.022h-14.26c-103.727 0-146.494 79.62-180.857 143.727-1.362 2.542-2.715 4.99-4.060 7.488l-0.059 0.095c-1.591 2.953-3.176 6.114-4.76 9.038-35.562 65.63-66.893 83.214-111.684 83.641v32.011c37.625 0 57.563-9.451 72.236-18.178 24.935-14.831 47.042-44.559 67.583-82.467 1.541-2.844 3.083-5.752 4.632-8.626l0.225-0.438c1.459-2.711 2.922-5.273 4.39-8.014 33.304-62.164 67.743-126.277 152.354-126.277z"></path>
<path fill="#000000" d="M348.798 293.844l-20.308 24.572 50.739 41.584h-13.81c-70.728 0-106.396-44.801-135.649-95.812l-17.648 32.618c31.434 49.82 74.994 95.194 153.297 95.194h14.26l-51.183 43.022 20.368 24.978 99.136-84-99.202-82.156z"></path>
<path fill="#000000" d="M175.684 231.652c1.584 2.924 3.169 6.085 4.76 9.038l0.059 0.095c1.218 2.262 2.442 4.49 3.675 6.777 5.82-10.73 11.98-21.748 18.695-32.649-20.273-37.079-42.083-66.132-66.636-80.735-14.674-8.727-34.612-18.178-72.237-18.178v32.011c44.791 0.427 76.122 18.011 111.684 83.641z"></path>
</svg>

<?xml version="1.0" encoding="utf-8"?>
<!-- Generator: Adobe Illustrator 16.2.1, SVG Export Plug-In . SVG Version: 6.00 Build 0)  -->
<!DOCTYPE svg PUBLIC "-//W3C//DTD SVG 1.1//EN" "http://www.w3.org/Graphics/SVG/1.1/DTD/svg11.dtd">
<svg version="1.1" id="Layer_1" xmlns="http://www.w3.org/2000/svg" xmlns:xlink="http://www.w3.org/1999/xlink" x="0px" y="0px"
	 width="512px" height="512px" viewBox="0 0 512 512" enable-background="new 0 0 512 512" xml:space="preserve">
<g>
	<path d="M365.419,152h13.81l-50.738,41.584l20.308,24.572L448,136l-99.136-84l-20.368,24.978L379.679,120h-14.26
		c-103.727,0-146.494,79.62-180.857,143.727c-1.362,2.542-2.715,4.99-4.06,7.488l-0.059,0.095c-1.591,2.953-3.176,6.114-4.76,9.038
		c-35.562,65.63-66.893,83.214-111.684,83.641V396c37.625,0,57.563-9.451,72.236-18.178c24.935-14.831,47.042-44.559,67.583-82.467
		c1.541-2.844,3.083-5.752,4.632-8.626l0.225-0.438c1.459-2.711,2.922-5.273,4.39-8.014C246.369,216.113,280.808,152,365.419,152z"
		/>
	<path d="M348.798,293.844l-20.308,24.572L379.229,360h-13.81c-70.728,0-106.396-44.801-135.649-95.812l-17.648,32.618
		C243.556,346.626,287.116,392,365.419,392h14.26l-51.183,43.022L348.864,460L448,376L348.798,293.844z"/>
	<path d="M175.684,231.652c1.584,2.924,3.169,6.085,4.76,9.038l0.059,0.095c1.218,2.262,2.442,4.49,3.675,6.777
		c5.82-10.73,11.98-21.748,18.695-32.649c-20.273-37.079-42.083-66.132-66.636-80.735C121.563,125.451,101.625,116,64,116v32.011
		C108.791,148.438,140.122,166.022,175.684,231.652z"/>
</g>
</svg>
